packages/components/icon/src/assets/icons/my-apps.svg

<svg width="24" height="24" viewBox="0 0 24 24" fill="none" xmlns="http://www.w3.org/2000/svg">
<path fill-rule="evenodd" clip-rule="evenodd" d="M13.9122 3C14.0857 3 14.2376 3.06508 14.3678 3.19525C14.4979 3.32541 14.563 3.47727 14.563 3.65083V7.20868C14.563 7.3967 14.4979 7.55217 14.3678 7.6751C14.2376 7.79804 14.0857 7.8595 13.9122 7.8595H10.3326C10.1591 7.8595 10.0072 7.79804 9.87707 7.6751C9.7469 7.55217 9.68182 7.3967 9.68182 7.20868V3.65083C9.68182 3.47727 9.7469 3.32541 9.87707 3.19525C10.0072 3.06508 10.1591 3 10.3326 3H13.9122ZM7.20868 9.68182C7.3967 9.68182 7.55217 9.7469 7.6751 9.87707C7.79804 10.0072 7.8595 10.1591 7.8595 10.3326V13.8905C7.8595 14.0785 7.79804 14.234 7.6751 14.3569C7.55217 14.4799 7.3967 14.5413 7.20868 14.5413H3.65083C3.47727 14.5413 3.32541 14.4799 3.19525 14.3569C3.06508 14.234 3 14.0785 3 13.8905V10.3326C3 10.1591 3.06508 10.0072 3.19525 9.87707C3.32541 9.7469 3.47727 9.68182 3.65083 9.68182H7.20868ZM20.5723 9.68182C20.7603 9.68182 20.9158 9.7469 21.0387 9.87707C21.1617 10.0072 21.2231 10.1591 21.2231 10.3326V13.8905C21.2231 14.0785 21.1617 14.234 21.0387 14.3569C20.9158 14.4799 20.7603 14.5413 20.5723 14.5413H17.0145C16.8409 14.5413 16.689 14.4799 16.5589 14.3569C16.4287 14.234 16.3636 14.0785 16.3636 13.8905V10.3326C16.3636 10.1591 16.4287 10.0072 16.5589 9.87707C16.689 9.7469 16.8409 9.68182 17.0145 9.68182H20.5723ZM13.8905 9.70351C14.0785 9.70351 14.234 9.76498 14.3569 9.88791C14.4799 10.0108 14.5413 10.1663 14.5413 10.3543V13.9122C14.5413 14.0857 14.4799 14.2376 14.3569 14.3678C14.234 14.4979 14.0785 14.563 13.8905 14.563H10.3326C10.1446 14.563 9.98915 14.4979 9.86622 14.3678C9.74328 14.2376 9.68182 14.0857 9.68182 13.9122V10.3543C9.68182 10.1663 9.74328 10.0108 9.86622 9.88791C9.98915 9.76498 10.1446 9.70351 10.3326 9.70351H13.8905ZM13.9122 16.3636C14.0857 16.3636 14.2376 16.4287 14.3678 16.5589C14.4979 16.689 14.563 16.8409 14.563 17.0145V20.5723C14.563 20.7603 14.4979 20.9158 14.3678 21.0387C14.2376 21.1617 14.0857 21.2231 13.9122 21.2231H10.3326C10.1591 21.2231 10.0072 21.1617 9.87707 21.0387C9.7469 20.9158 9.68182 20.7603 9.68182 20.5723V17.0145C9.68182 16.8409 9.7469 16.689 9.87707 16.5589C10.0072 16.4287 10.1591 16.3636 10.3326 16.3636H13.9122Z" fill="currentColor"/>
</svg>

<svg viewBox="0 0 24 24" fill="none" xmlns="http://www.w3.org/2000/svg"><path fill-rule="evenodd" clip-rule="evenodd" d="M13.912 3c.174 0 .326.065.456.195s.195.282.195.456v3.558a.614.614 0 0 1-.195.466.643.643 0 0 1-.456.184h-3.58a.643.643 0 0 1-.455-.184.614.614 0 0 1-.195-.466V3.65c0-.174.065-.326.195-.456A.624.624 0 0 1 10.333 3h3.58ZM7.21 9.682c.188 0 .343.065.466.195s.184.282.184.456v3.557a.632.632 0 0 1-.65.651H3.65a.642.642 0 0 1-.456-.184A.614.614 0 0 1 3 13.89v-3.558c0-.174.065-.326.195-.456a.624.624 0 0 1 .456-.195h3.558Zm13.363 0c.188 0 .344.065.467.195.123.13.184.282.184.456v3.557a.632.632 0 0 1-.65.651h-3.558a.642.642 0 0 1-.456-.184.614.614 0 0 1-.195-.466v-3.558c0-.174.065-.326.195-.456a.624.624 0 0 1 .456-.195h3.557Zm-6.681.022a.632.632 0 0 1 .65.65v3.558a.643.643 0 0 1-.184.456.614.614 0 0 1-.466.195h-3.558a.614.614 0 0 1-.467-.195.643.643 0 0 1-.184-.456v-3.558a.632.632 0 0 1 .65-.65h3.558Zm.021 6.66c.174 0 .326.065.456.195s.195.282.195.456v3.557a.614.614 0 0 1-.195.467.643.643 0 0 1-.456.184h-3.58a.642.642 0 0 1-.455-.184.614.614 0 0 1-.195-.467v-3.557c0-.174.065-.326.195-.456a.624.624 0 0 1 .456-.195h3.58Z" fill="currentColor"/></svg>
